X:1
T:Ruth's Waltz
M:3/4
L:1/8
C:Pat Simmonds
R:Waltz
N:Written for my friend Ruth Dillon who is a fine singer songwriter in Galway
K:D
DE||:F2 AF AB|AF E2 DE|F2 d2 c2|d3 c|B3 A|Bc BA F2|DE F2 ED|1 E2 DE:||2D2 dc||:B2 BA Bc|BA F2 dc|B2 d2 e2|~f3 dc|B3 A Bc|BA F2 DE|1 F2 E2 D2|E3 dc:||2 F2 d2 c2|B3||

